src/lib/runemarks/svg/factions-chaos-bladeborn-godsworn-hunt.svg

<svg xmlns="http://www.w3.org/2000/svg" xml:space="preserve" fill-rule="evenodd" stroke-linejoin="round" stroke-miterlimit="2" clip-rule="evenodd" viewBox="0 0 300 300"><path fill-rule="nonzero" d="M155.238.086c21.152 2.979 38.834 15.581 48.691 33.155l.171.321c4.458 7.822 9.88 15.259 13.63 23.467 2.808 5.958 4.587 12.902 4.929 20.21v.129c.15 11.509 3.214 22.267 8.466 31.611l-.15-.343c9.472 16.738 1.564 46.956-15.195 56.493-21.625 12.751-28.889 33.261-31.311 55.936-1.5 12.216 0 24.732-.471 36.99s-2.529 24.346-4.393 36.455c0 2.121-3.193 5.614-4.608 5.487-2.958-.514-5.443-2.164-7.116-4.437l-.021-.042c-4.2-7.545-12.109-12.58-21.217-12.58-5.422 0-10.437 1.8-14.466 4.8l.064-.042c-2.036 1.65-1.8 5.872-3.214 8.616-.621 1.179-2.979 1.5-4.564 2.186-4.479-12.366-12.13-23.467-9.558-38.19 1.2-6.408 1.886-13.802 1.886-21.346 0-21.754-5.743-42.177-15.752-59.836l.321.6c-3.493-5.358-8.166-9.666-13.652-12.666l-.214-.107c-17.852-10.801-28.032-35.834-19.438-53.986 5.572-11.445 9.045-24.796 9.558-38.941v-.171c1.564-10.159 5.014-19.246 9.966-27.304l-.193.3c4.479-8.037 9.022-14.895 13.995-21.389l-.3.429C114.177 10.396 133.486.473 155.11.002h.086l.042.086zm28.569 160.284c8.38 1.029 12.923-4.158 17.617-10.009 7.845-10.008 1.714-19.867 0-29.661s-7.051-10.716-13.009-4.158a192 192 0 0 0-20.596 26.682l-.45.771c-5.316 8.272-2.893 12.752 6.666 15.645 2.658.45 5.743.707 8.872.707h.964l-.064.021zm-63.116 0c14.166 0 17.702-5.572 10.801-17.745-3.858-7.18-8.145-13.395-13.03-19.073l.129.15c-4.372-4.179-9.172-7.972-14.252-11.337l-.386-.236c-2.058 4.629-4.222 10.458-6.043 16.438l-.3 1.157c-.686 2.122-1.072 4.522-1.072 7.051 0 12.945 10.523 23.468 23.489 23.468.257 0 .471 0 .729-.021h-.043l-.021.15zm41.598 74.582c-3.3-.279-7.158-.429-11.037-.429s-7.737.171-11.53.471l.493-.042c-3.836.707-9.087 15.645-6.579 19.009 2.872 4.8 7.03 8.593 11.98 10.951l.171.064c1.522.558 3.3.879 5.143.879a15.67 15.67 0 0 0 13.438-7.608l.042-.064c.986-2.7 1.543-5.808 1.543-9.045 0-5.508-1.629-10.63-4.437-14.938l.064.107c-.793-.621-2.186-.793.707.471v.171z"/></svg>

<?xml version="1.0" encoding="UTF-8" standalone="no"?>
<!DOCTYPE svg PUBLIC "-//W3C//DTD SVG 1.1//EN" "http://www.w3.org/Graphics/SVG/1.1/DTD/svg11.dtd">
<svg width="100%" height="100%" viewBox="0 0 300 300" version="1.1" xmlns="http://www.w3.org/2000/svg" xmlns:xlink="http://www.w3.org/1999/xlink" xml:space="preserve" xmlns:serif="http://www.serif.com/" style="fill-rule:evenodd;clip-rule:evenodd;stroke-linejoin:round;stroke-miterlimit:2;">
    <path d="M155.238,0.086C176.39,3.065 194.072,15.667 203.929,33.241L204.1,33.562C208.558,41.384 213.98,48.821 217.73,57.029C220.538,62.987 222.317,69.931 222.659,77.239L222.659,77.368C222.809,88.877 225.873,99.635 231.125,108.979L230.975,108.636C240.447,125.374 232.539,155.592 215.78,165.129C194.155,177.88 186.891,198.39 184.469,221.065C182.969,233.281 184.469,245.797 183.998,258.055C183.527,270.313 181.469,282.401 179.605,294.51C179.605,296.631 176.412,300.124 174.997,299.997C172.039,299.483 169.554,297.833 167.881,295.56L167.86,295.518C163.66,287.973 155.751,282.938 146.643,282.938C141.221,282.938 136.206,284.738 132.177,287.738L132.241,287.696C130.205,289.346 130.441,293.568 129.027,296.312C128.406,297.491 126.048,297.812 124.463,298.498C119.984,286.132 112.333,275.031 114.905,260.308C116.105,253.9 116.791,246.506 116.791,238.962C116.791,217.208 111.048,196.785 101.039,179.126L101.36,179.726C97.867,174.368 93.194,170.06 87.708,167.06L87.494,166.953C69.642,156.152 59.462,131.119 68.056,112.967C73.628,101.522 77.101,88.171 77.614,74.026L77.614,73.855C79.178,63.696 82.628,54.609 87.58,46.551L87.387,46.851C91.866,38.814 96.409,31.956 101.382,25.462L101.082,25.891C114.177,10.396 133.486,0.473 155.11,0.002L155.196,0.002L155.238,0.088L155.238,0.086ZM183.807,160.37C192.187,161.399 196.73,156.212 201.424,150.361C209.269,140.353 203.138,130.494 201.424,120.7C199.71,110.906 194.373,109.984 188.415,116.542C180.781,124.815 173.889,133.743 167.819,143.224L167.369,143.995C162.053,152.267 164.476,156.747 174.035,159.64C176.693,160.09 179.778,160.347 182.907,160.347L183.871,160.347L183.807,160.368L183.807,160.37ZM120.691,160.37C134.857,160.37 138.393,154.798 131.492,142.625C127.634,135.445 123.347,129.23 118.462,123.552L118.591,123.702C114.219,119.523 109.419,115.73 104.339,112.365L103.953,112.129C101.895,116.758 99.731,122.587 97.91,128.567L97.61,129.724C96.924,131.846 96.538,134.246 96.538,136.775C96.538,149.72 107.061,160.243 120.027,160.243C120.284,160.243 120.498,160.243 120.756,160.222L120.713,160.222L120.692,160.372L120.691,160.37ZM162.289,234.952C158.989,234.673 155.131,234.523 151.252,234.523C147.373,234.523 143.515,234.694 139.722,234.994L140.215,234.952C136.379,235.659 131.128,250.597 133.636,253.961C136.508,258.761 140.666,262.554 145.616,264.912L145.787,264.976C147.309,265.534 149.087,265.855 150.93,265.855C156.429,265.859 161.542,262.965 164.368,258.247L164.41,258.183C165.396,255.483 165.953,252.375 165.953,249.138C165.953,243.63 164.324,238.508 161.516,234.2L161.58,234.307C160.787,233.686 159.394,233.514 162.287,234.778L162.287,234.949L162.289,234.952Z" style="fill-rule:nonzero;"/>
</svg>
